resources/svg/user-settings.svg

<svg xmlns="http://www.w3.org/2000/svg" viewBox="0 0 24 24" fill="currentColor"><path fill="none" stroke="currentColor" stroke-width="2" d="M18.0003,20.9998 C16.3453,20.9998 15.0003,19.6538 15.0003,17.9998 C15.0003,16.3458 16.3453,14.9998 18.0003,14.9998 C19.6543,14.9998 21.0003,16.3458 21.0003,17.9998 C21.0003,19.6538 19.6543,20.9998 18.0003,20.9998 L18.0003,20.9998 Z M24.0003,17.9998 L21.0003,17.9998 L24.0003,17.9998 Z M20.1213,20.1218 L22.2423,22.2428 L20.1213,20.1218 Z M18.0003,23.9998 L18.0003,20.9998 L18.0003,23.9998 Z M13.7573,22.2428 L15.8783,20.1208 L13.7573,22.2428 Z M12.0003,17.9998 L15.0003,17.9998 L12.0003,17.9998 Z M15.8783,15.8788 L13.7573,13.7578 L15.8783,15.8788 Z M18.0003,14.9998 L18.0003,11.9998 L18.0003,14.9998 Z M20.1213,15.8788 L22.2423,13.7578 L20.1213,15.8788 Z M12.5,12.5 C11.2660678,11.4458897 9.77508483,11 8,11 C4.13400675,11 1,13.0294373 1,18 L1,23 L11,23 M8,11 C10.7614237,11 13,8.76142375 13,6 C13,3.23857625 10.7614237,1 8,1 C5.23857625,1 3,3.23857625 3,6 C3,8.76142375 5.23857625,11 8,11 Z"/></svg>

<svg viewBox="0 0 24 24"><path fill="none" stroke="currentColor" stroke-width="2" d="M18 21c-1.655 0-3-1.346-3-3s1.345-3 3-3c1.654 0 3 1.346 3 3s-1.346 3-3 3h0zm6-3h-3h3zm-3.879 2.122l2.121 2.12l-2.12-2.12zM18.001 24v-3v3zm-4.244-1.757l2.121-2.122l-2.12 2.122zM12 18h3h-3zm3.878-2.121l-2.12-2.121l2.12 2.12zm2.122-.88v-3v3zm2.121.88l2.121-2.121l-2.12 2.12zM12.5 12.5C11.266 11.446 9.775 11 8 11c-3.866 0-7 2.03-7 7v5h10M8 11A5 5 0 1 0 8 1a5 5 0 0 0 0 10z"/></svg>
